lib/flags/l/NI.svg

<svg xmlns="http://www.w3.org/2000/svg" fill="none" viewBox="0 0 32 24"><mask id="NI_svg__a" width="32" height="24" x="0" y="0" mask-type="alpha" maskUnits="userSpaceOnUse"><path fill="#fff" d="M0 0H32V24H0z"/></mask><g mask="url(#NI_svg__a)"><path fill="#F7FCFF" fill-rule="evenodd" d="M0 0V24H32V0H0Z" clip-rule="evenodd"/><mask id="NI_svg__b" width="32" height="24" x="0" y="0" mask-type="alpha" maskUnits="userSpaceOnUse"><path fill="#fff" fill-rule="evenodd" d="M0 0V24H32V0H0Z" clip-rule="evenodd"/></mask><g mask="url(#NI_svg__b)"><path fill="#0080EC" fill-rule="evenodd" d="M0 0V8H32V0H0zM0 16V24H32V16H0z" clip-rule="evenodd"/><path fill="#D0AB00" fill-rule="evenodd" d="M16 8C16.1885 8 16.3739 8.01303 16.5554 8.03825L16.3573 9.31426C16.2404 9.29886 16.1211 9.29091 16 9.29091C15.8239 9.29091 15.6516 9.30772 15.4849 9.33982L15.3923 8.04587C15.5905 8.01566 15.7934 8 16 8ZM17.1521 8.16841L16.8045 9.41237C17.9079 9.75505 18.7091 10.784 18.7091 12C18.7091 12.0299 18.7086 12.0597 18.7076 12.0893L19.9952 12.1985C19.9984 12.1327 20 12.0666 20 12C20 10.1914 18.7996 8.66311 17.1521 8.16841ZM19.5134 13.9136C18.8796 15.075 17.6866 15.8874 16.2963 15.9892V14.6931C17.037 14.6125 17.688 14.2334 18.1265 13.6786L19.5134 13.9136ZM12.5768 14.0704C13.2408 15.1658 14.4158 15.9171 15.7712 15.9936V14.6996C14.9812 14.6335 14.2876 14.2285 13.8363 13.6304L12.5768 14.0704ZM12.0036 12.1715C12.0012 12.1146 12 12.0575 12 12C12 10.3016 13.0586 8.85037 14.5519 8.27017L14.8858 9.52992C13.9509 9.95231 13.2986 10.8899 13.291 11.9807L12.0036 12.1715Z" clip-rule="evenodd"/><path fill="#7CDFFF" fill-rule="evenodd" d="M15.9749 8.94971L13.238 13.6805H18.7548L15.9749 8.94971Z" clip-rule="evenodd"/><mask id="NI_svg__c" width="6" height="6" x="13" y="8" mask-type="alpha" maskUnits="userSpaceOnUse"><path fill="#fff" fill-rule="evenodd" d="M15.9749 8.94971L13.238 13.6805H18.7548L15.9749 8.94971Z" clip-rule="evenodd"/></mask><g mask="url(#NI_svg__c)"><path stroke="#E31D1C" d="M16 15.1181C17.3205 15.1181 18.3909 14.0477 18.3909 12.7272C18.3909 11.4068 17.3205 10.3363 16 10.3363C14.6796 10.3363 13.6091 11.4068 13.6091 12.7272C13.6091 14.0477 14.6796 15.1181 16 15.1181Z"/><path stroke="#FFD018" d="M16 15.1181C17.3205 15.1181 18.3909 14.0477 18.3909 12.7272C18.3909 11.4068 17.3205 10.3363 16 10.3363C14.6796 10.3363 13.6091 11.4068 13.6091 12.7272C13.6091 14.0477 14.6796 15.1181 16 15.1181Z"/><path stroke="#4EDD00" d="M16 15.1181C17.3205 15.1181 18.3909 14.0477 18.3909 12.7272C18.3909 11.4068 17.3205 10.3363 16 10.3363C14.6796 10.3363 13.6091 11.4068 13.6091 12.7272C13.6091 14.0477 14.6796 15.1181 16 15.1181Z"/><path stroke="#3D58DB" d="M16 15.1181C17.3205 15.1181 18.3909 14.0477 18.3909 12.7272C18.3909 11.4068 17.3205 10.3363 16 10.3363C14.6796 10.3363 13.6091 11.4068 13.6091 12.7272C13.6091 14.0477 14.6796 15.1181 16 15.1181Z"/><path fill="#3D58DB" d="M13.018 12.218H19.273V14.036H13.018z"/><path fill="#97C923" fill-rule="evenodd" d="M13.437 12.9909L14.6836 11.7513L15.0662 12.3711L15.3334 11.6152L15.6303 12.1818L15.942 11.7513L16.3454 12.1818L16.7153 11.6152L17.0314 12.1818L17.3941 11.7513L18.2417 12.652L18.3943 12.9909L13.437 13.2424V12.9909Z" clip-rule="evenodd"/></g></g></g></svg>

<svg xmlns="http://www.w3.org/2000/svg" fill="none" viewBox="0 0 32 24"><mask id="NI_svg__a" width="32" height="24" x="0" y="0" maskUnits="userSpaceOnUse"><path fill="#fff" d="M0 0h32v24H0z"/></mask><g mask="url(#NI_svg__a)"><path fill="#F7FCFF" fill-rule="evenodd" d="M0 0v24h32V0H0z" clip-rule="evenodd"/><mask id="NI_svg__b" width="32" height="24" x="0" y="0" maskUnits="userSpaceOnUse"><path fill="#fff" fill-rule="evenodd" d="M0 0v24h32V0H0z" clip-rule="evenodd"/></mask><g mask="url(#NI_svg__b)"><path fill="#0080EC" fill-rule="evenodd" d="M0 0v8h32V0H0zm0 16v8h32v-8H0z" clip-rule="evenodd"/><path fill="#D0AB00" fill-rule="evenodd" d="M16 8c.189 0 .374.013.555.038l-.198 1.276a2.735 2.735 0 00-.872.026l-.093-1.294A4.03 4.03 0 0116 8zm1.152.168l-.348 1.244a2.71 2.71 0 011.904 2.677l1.287.11a4.002 4.002 0 00-2.843-4.03zm2.361 5.746a4 4 0 01-3.217 2.075v-1.296a2.704 2.704 0 001.83-1.014l1.387.235zm-6.936.156a4 4 0 003.194 1.924V14.7a2.706 2.706 0 01-1.935-1.07l-1.26.44zm-.573-1.899a4.002 4.002 0 012.548-3.901l.334 1.26a2.71 2.71 0 00-1.595 2.45l-1.287.191z" clip-rule="evenodd"/><path fill="#7CDFFF" fill-rule="evenodd" d="M15.975 8.95l-2.737 4.73h5.517l-2.78-4.73z" clip-rule="evenodd"/><mask id="NI_svg__c" width="6" height="6" x="13" y="8" maskUnits="userSpaceOnUse"><path fill="#fff" fill-rule="evenodd" d="M15.975 8.95l-2.737 4.73h5.517l-2.78-4.73z" clip-rule="evenodd"/></mask><g mask="url(#NI_svg__c)"><path stroke="#E31D1C" d="M16 15.118a2.39 2.39 0 100-4.782 2.39 2.39 0 000 4.782z"/><path stroke="#FFD018" d="M16 15.118a2.39 2.39 0 100-4.782 2.39 2.39 0 000 4.782z"/><path stroke="#4EDD00" d="M16 15.118a2.39 2.39 0 100-4.782 2.39 2.39 0 000 4.782z"/><path stroke="#3D58DB" d="M16 15.118a2.39 2.39 0 100-4.782 2.39 2.39 0 000 4.782z"/><path fill="#3D58DB" d="M13.018 12.218h6.255v1.818h-6.255z"/><path fill="#97C923" fill-rule="evenodd" d="M13.437 12.99l1.247-1.239.382.62.267-.756.297.567.312-.43.403.43.37-.567.316.567.363-.43.848.9.152.339-4.957.251v-.251z" clip-rule="evenodd"/></g></g></g></svg>
